Flat-Remix-Dark/panel/indicator-keyboard-By.svg

<svg xmlns="http://www.w3.org/2000/svg" width="22" height="22" version="1.1">
 <defs>
  <style id="current-color-scheme" type="text/css">
   .ColorScheme-Text { color:#d3dae3; } .ColorScheme-Highlight { color:#5294e2; }
  </style>
 </defs>
 <rect style="opacity:0" width="22" height="22" x="0" y="0"/>
 <path style="fill:none;stroke:currentColor;stroke-width:1.99999976;stroke-linecap:round;stroke-linejoin:bevel" class="ColorScheme-Text" d="m 3.968257,10.988609 c 0,0 1.9999845,0.02271 2.9999844,0.02268 0.4072187,-2.5e-5 0.7411891,3.46e-4 1.0000009,3.46e-4 0.9999996,0 0.9999996,0 0.9999996,1 0,0.2561 0,0.574013 10e-7,0.977183 0,0.401652 -10e-7,0.758148 -10e-7,1.022817 0,0.999999 0,0.999999 -0.9999996,0.999999 -0.2542904,0 -0.6067264,-2.44e-4 -1.0000176,-2.44e-4 -0.9999998,0 -2.9999832,-0.02268 -2.9999832,-0.02268 m 1.137e-4,-8.000098 0,8 m -9.82e-5,-3.977325 1.9999845,-4e-6 c 2.0000001,0 2.0000001,0 2.0000178,-1.9999929 l -1.7e-5,-0.9996577 c 0,-1 0,-1 -0.9999998,-1 -0.2575597,0 -0.5967466,-3.479e-4 -1.000001,-3.471e-4 l -1.9999845,3.8e-6 m 9.82e-5,8.0000989 0,-8.0000007"/>
 <path style="fill:none;stroke:currentColor;stroke-width:1.99999976;stroke-linecap:round" class="ColorScheme-Text" d="m 14.999585,14.998586 0,-4.000002 m 3,-3.9999988 -3,3.9999988 m -3,-3.9999988 3,3.9999988"/>
</svg>

<svg xmlns="http://www.w3.org/2000/svg" width="12pt" height="12pt" version="1.1" viewBox="0 0 12 12">
 <g>
  <path style="fill:none;stroke-width:2;stroke-linecap:round;stroke-linejoin:bevel;stroke:rgb(82.745098%,85.490196%,89.019608%)" d="M 3.96875 10.992188 C 3.96875 10.992188 5.96875 11.007812 6.96875 11.007812 C 7.375 11.007812 7.710938 11.007812 7.96875 11.007812 C 8.96875 11.007812 8.96875 11.007812 8.96875 12.007812 C 8.96875 12.265625 8.96875 12.585938 8.96875 12.992188 C 8.96875 13.390625 8.96875 13.75 8.96875 14.007812 C 8.96875 15.007812 8.96875 15.007812 7.96875 15.007812 C 7.710938 15.007812 7.359375 15.007812 6.96875 15.007812 C 5.96875 15.007812 3.96875 14.992188 3.96875 14.992188 M 3.96875 6.992188 L 3.96875 14.992188 M 3.96875 11.007812 L 5.96875 11.007812 C 7.96875 11.007812 7.96875 11.007812 7.96875 9.007812 L 7.96875 8.007812 C 7.96875 7.007812 7.96875 7.007812 6.96875 7.007812 C 6.710938 7.007812 6.375 7.007812 5.96875 7.007812 L 3.96875 7.007812 M 3.96875 15.007812 L 3.96875 7.007812" transform="matrix(0.5,0,0,0.5,0.5,0.5)"/>
  <path style="fill:none;stroke-width:2;stroke-linecap:round;stroke:rgb(82.745098%,85.490196%,89.019608%)" d="M 15 15 L 15 11 M 18 7 L 15 11 M 12 7 L 15 11" transform="matrix(0.5,0,0,0.5,0.5,0.5)"/>
 </g>
</svg>
